X: 595
T: Good Health to my Brown Maid.
T: slainte do,m .cailin donn.
R:air
N:"Very slow."
B:O'Neill's 595
Z:Transcribed by John Walsh (walsh@math.ubc.ca)
M:C
L:1/8
%Q:50
K:F
D2|F2 (G>B) d2 (c>B)|A2 DME {DE}G2 z A|MG>F GA f2 ec|(d>{ed}c)Ac d2 z D|
F2 (G>B) f2 e>c|d>{ed}cAc d2 z A|c>dc>B d2 cB|A>(D ME)(D/E/) F2 z||
(A/B/)|c>dcB d2 cB|A>D E2 "~"HF2 ((3cde)|(f>{gf}e)fg (fe)(dc)|(MAG)A"~#"c d2 z (A/B/)|
cA (cd/e/) f3a|g>fed Hc2 (d/^c/d/e/)|f>edc {A}Hd2 cB|A>(D ME)(D/E/) F3||


